X:46
T:Eccles's Rant
M:C|
L:1/8
K:DMix
F|D/D/D dF A3c  |BGAF G/F/E/D/ CE|D/D/D dF A3g  |fdef d/d/d d:|
e|fdgf    Te>dce|fdge d3e        |fdgf    Te>dce|fdge fdge|fdgf    Te>dcg|f/g/a ef d2d:|

% @@@@@@@@@@@@@@@@@@@@@@@@@@@@@@@@@@

%% 47. ===============================================================================

% +&C&aptain &R&oss.+
%
% *SETT and cast down one Couple.  Sett again & cast up.  *Cross over, and figure 8
% about 2d Couple.  Then Right and Left with 2d Couple.  *SETT across and turn.  *Lead
% out at the Sides.

% @@@@@@@@@@@@@@@@@@@@@@@@@@@@@@@@@@

